!!!OTL: HAT MIR MEIN VATER VIERZIG GULDEN
!!!ARE: Europa, Mitteleuropa, Deutschland, Hessen, Giessen, Neiskirchen
!!!SCT: E1575
!!!YEM: Copyright 1995, estate of Helmut Schaffrath.
**kern
*ICvox
*Ivox
*M3/8
*k[b-]
*F:
=1
{8.f
16f
8f
=2
8.a
16a
8a
=3
8.dd
16cc
8cc}
=4
{8cc
8ff
8a
=5
8.cc
16b-
8b-
=6
4.a}
=7
{8cc
8ff
8a
=8
8.cc
16b-
8b-}
=9
{8b-
8dd
8g
=10
8.b-
16a
8a}
=11
{8a
8a
8a
=12
8.cc
16a
8b-
=13
8cc
8ff
8a}
=14
{8.a
16a
8a
=15
8.dd
16cc
8cc
=16
4.a}
==
!!!AGN: Staende - Lied, Fuhrmann
!!!ONB: ESAC (Essen Associative Code) Database: ERK3
!!!AMT: simple triple
!!!AIN: vox
!!!EED: Helmut Schaffrath
!!!EEV: 1.0
*-
